X:161
T:Review, The, or Bellisle March
M:C
L:1/8
B:Thompson's Compleat Collection of 200 Favourite Country Dances, vol. 2 (London, 1765)
Z:Transcribed and edited by Flynn Titford-Mock, 2007
Z:abc's:AK/Fiddler's Companion
K:G
D2 | G2 G>B A2 A>c | B2 g>e {e}"tr"d3 c | B2 (3dBG A2 (3cAF | G2 G>G G2 :: D2 | d>edc B2B2 | c>dcB {B}"tr"A4 |
d>ed>c B>cB>c | de d(c/B/) {B}"tr"A3D | G2 G>B A2 A>c | B2 g>e {e}d3c | B2 (3dBG A2 (3cAF | G2 G>G G2 :|

